public/logo-full.svg

<?xml version="1.0" encoding="utf-8"?>
<!-- Generator: Adobe Illustrator 24.0.1, SVG Export Plug-In . SVG Version: 6.00 Build 0)  -->
<svg version="1.1" id="Camada_1" xmlns="http://www.w3.org/2000/svg" xmlns:xlink="http://www.w3.org/1999/xlink" x="0px" y="0px"
	 viewBox="0 0 1097.22 408.52" style="enable-background:new 0 0 1097.22 408.52;" xml:space="preserve">
<style type="text/css">
	.st0{fill:#FFFFFF;}
</style>
<g>
	<path class="st0" d="M1067.25,252.61c-6.22,20.49-19.9,31.18-42.91,33.74c-8.78,0.98-17.43,0.94-25.88-1.98
		c-16.21-5.61-24.98-19.44-21.44-36.32c3.47-16.55,8.4-32.79,12.69-49.17c1.01-3.86,2.2-7.68,2.92-11.6
		c1.08-5.93-3.91-10.47-9.83-9.2c-6.29,1.34-10.64,5.5-12.87,11.02c-2.91,7.21-4.96,14.83-6.78,22.41
		c-2.95,12.36-5.46,24.83-8.03,37.28c-0.59,2.85-1.8,6.4,1.6,8.08c3.37,1.67,5.79-0.83,7.91-3.33c0.92-1.09,2.19-1.88,3.3-2.81
		c0.89,1.41,2.26,2.72,2.59,4.25c2.18,9.89-1.9,17.82-8.47,24.7c-8.68,9.1-19.9,13.04-31.97,14.87c-9.47,1.44-18.88,1.34-28.07-1.99
		c-15.09-5.47-23.31-18.2-21.01-34.22c1.27-8.84,3.66-17.53,5.91-26.2c3.01-11.57,6.36-23.05,9.59-34.56
		c0.98-3.5,0.83-6.77-2.12-9.25c-2.98-2.5-6.42-2.49-9.87-1.06c-8.12,3.34-11.76,10.34-13.54,18.17
		c-4.85,21.39-9.22,42.89-13.87,64.32c-1.15,5.29,0.06,9.61,4.39,12.97c0.49,0.38,0.93,0.83,1.41,1.24
		c5.7,4.89,4.82,10.68-2.52,12.91c-5.54,1.68-11.45,2.33-17.25,2.9c-18.76,1.83-37.55,3.44-56.33,5.06
		c-3.1,0.27-6.25,0.35-9.36,0.22c-3.51-0.14-6.73-1.14-7.98-4.95c-1.23-3.76,0.84-6.53,3.66-8.23c8.08-4.88,11.47-12.25,13.02-21.19
		c1.72-9.94,4.12-19.76,6.24-29.63c3.62-16.81,7.15-33.65,10.92-50.43c1.35-6-0.36-10.35-5.27-13.94
		c-7.68-5.62-7.59-10.69,0.47-16.02c10.26-6.78,21.83-10.45,33.87-12.15c7.32-1.03,14.98-1.74,22.23-0.73
		c11.77,1.63,19.1,10.38,20.75,22.38c0.08,0.58,0.29,1.15,0.58,2.26c2.86-3.83,5.36-7.31,7.99-10.68
		c12.11-15.55,28.61-22.05,47.75-22.28c17.89-0.22,31.79,11.18,35.85,28.6c0.11,0.47,0.24,0.94,0.57,2.27
		c1.01-1.61,1.71-2.64,2.32-3.72c4.89-8.64,10.34-16.95,18.51-22.8c14.47-10.37,30.45-15.59,48.3-11.37
		c14.18,3.36,22.75,12.77,26.19,26.84c2.6,10.64,0.53,21.05-1.79,31.45c-3.68,16.54-7.23,33.12-10.8,49.69
		c-0.63,2.94-1.57,6.52,1.73,8.07c3.5,1.65,6.03-0.96,8.06-3.75c0.71-0.98,1.67-1.79,3.35-3.56c1.28,2.99,2.28,5.34,3.29,7.68
		C1067.25,250.11,1067.25,251.36,1067.25,252.61z"/>
	<path class="st0" d="M29.38,185.12c2.39-5.95,7.65-6.95,13.1-7.44c22.63-2,45.25-3.95,67.89-5.88c2.61-0.22,5.26-0.36,7.85-0.13
		c8.06,0.72,12.38,8.62,7.37,14.86c-6.61,8.23-6.44,16.32-3.69,25.84c5.15,17.82,9.32,35.91,13.91,53.89
		c0.28,1.08,0.6,2.14,1.09,3.87c5.08-11.21,9.84-21.87,14.73-32.47c7.98-17.3,15.69-34.74,24.2-51.78
		c5.56-11.14,13.92-19.81,26.77-22.72c11.32-2.56,22.11-2.43,31.01,6.52c8.46,8.5,10.53,25.31,4.59,37.12
		c-6,11.93-18.27,18.83-31.15,16.33c-5.27-1.02-10.08-4.37-15.1-6.66c0.04-0.4,0.09-0.79,0.13-1.19c-0.74,1.37-1.53,2.72-2.21,4.13
		c-19.51,40.52-39,81.05-58.51,121.58c-0.81,1.68-1.72,3.32-2.62,4.95c-5.16,9.33-11.52,17.24-22.89,19.14c-0.75,0-1.5,0-2.25,0
		c-11.86-1.23-17.22-9.23-20.38-19.54c-0.22-0.71-0.49-1.41-0.68-2.13c-11.71-42.6-23.55-85.16-35.02-127.82
		c-2.08-7.74-5.92-13.74-11.96-18.82c-2.51-2.11-4.16-5.25-6.2-7.92C29.38,187.62,29.38,186.37,29.38,185.12z"/>
	<path class="st0" d="M485.07,309.03c-7.14,9.27-15.27,16.6-25.41,21.33c-18.2,8.48-36.54,8.65-54.38-0.76
		c-12.6-6.64-17.95-18.18-16.66-31.88c1.14-12.1,4.02-24.05,6.4-36.02c2.57-12.96,5.46-25.85,8.19-38.78
		c0.87-4.11-0.57-7.35-3.88-9.8c-1.2-0.89-2.51-1.63-3.73-2.5c-4.94-3.51-5.45-8.05-0.86-12.08c2.87-2.52,6.18-4.73,9.64-6.33
		c15.63-7.23,32.07-10.86,49.37-10.1c15.88,0.69,25.37,12.22,22.93,28.43c-1.34,8.86-3.42,17.62-5.25,26.41
		c-2.81,13.55-5.69,27.08-8.54,40.62c-0.03,0.12-0.03,0.25-0.05,0.37c-1.1,6.17,0.05,9.73,3.69,11.44
		c4.19,1.97,10.71,0.85,13.51-3.4c2.82-4.28,5.35-9.12,6.5-14.07c4.35-18.82,8.09-37.78,12.07-56.68c0.88-4.16-0.05-7.67-3.53-10.32
		c-0.99-0.75-2-1.5-3.02-2.21c-5.86-4.07-6.58-8.96-0.82-13.23c5.11-3.8,11.03-6.84,17.01-9.09c13.42-5.04,27.37-7.68,41.81-6.61
		c13.75,1.01,22.67,9.92,22.47,22.66c-0.06,3.96-0.62,7.97-1.43,11.86c-5.33,25.75-10.86,51.46-16.09,77.24
		c-0.41,2.05,0.32,5.55,1.75,6.48c2.7,1.75,5.41-0.2,7.32-2.64c0.39-0.49,0.69-1.05,1.08-1.53c2.19-2.73,4.02-2.47,5.32,0.87
		c1.83,4.7,1.04,9.38-0.69,13.89c-3.32,8.66-9.63,14.87-17.42,19.45c-14.44,8.49-29.91,10.83-46.12,6.27
		c-9.24-2.6-16.03-8.38-20.06-17.21C485.94,310.56,485.62,310.05,485.07,309.03z"/>
	<path class="st0" d="M682.43,292.78c-7.08,5.88-13.4,12.47-20.92,17.11c-18.32,11.3-37.82,12.68-57.51,3.48
		c-12.35-5.77-18.98-16.2-18.68-29.59c0.23-10.23,2.54-20.47,4.52-30.6c3.06-15.65,6.62-31.21,9.96-46.81
		c1.04-4.88-0.29-8.11-4.46-10.94c-0.52-0.35-1.04-0.7-1.56-1.04c-7.07-4.7-7.34-9.42-0.57-14.69c7.02-5.46,15.34-8.25,23.74-10.65
		c11.22-3.21,22.66-5.08,34.37-4.24c14,1,22.48,10.12,22.19,24.08c-0.1,4.57-0.92,9.17-1.84,13.67
		c-3.98,19.41-8.13,38.79-12.18,58.19c-1.22,5.85,0.13,9.69,3.83,11.41c4.27,1.99,10.69,0.34,13.89-3.64
		c4.8-5.98,6.08-13.26,7.57-20.48c3.33-16.11,6.69-32.22,10.09-48.32c1.51-7.18,0.64-9.59-5.24-13.71
		c-7.27-5.1-7.37-10.31,0.02-15.45c10.04-6.98,21.6-10.14,33.41-12.39c9.57-1.82,19.24-3.34,28.96-0.93
		c11.78,2.92,19.09,12.87,17.08,24.88c-2.72,16.22-6.3,32.29-9.61,48.4c-2.49,12.09-5.2,24.12-7.66,36.21
		c-0.58,2.84-1.7,6.54,1.66,8.11c3.45,1.61,6.03-0.85,8.06-3.71c0.73-1.02,1.98-1.67,3-2.48c0.97,1.21,2.46,2.29,2.83,3.66
		c1.97,7.15-0.12,13.6-4.28,19.39c-8.05,11.2-19.2,17.84-32.64,19.99c-7.05,1.13-14.49,1.42-21.56,0.54
		C696.49,310.7,687.12,304.12,682.43,292.78z"/>
	<path class="st0" d="M314.73,213.08c3.64-4.25,6.74-8.48,10.44-12.1c12.29-12.06,33.82-14.31,47.77-5.25
		c12.08,7.84,17.34,23.1,13.81,38.68c-3.99,17.55-19.83,26.35-36.52,23.51c-6.56-1.12-10.81-5.45-14.68-10.25
		c-2.26-2.81-4.07-5.98-6.15-8.94c-2.09-2.99-4.2-6.36-8.53-5.5c-4.3,0.86-5.67,4.6-6.53,8.32c-2.07,8.98-3.99,18-5.94,27.01
		c-3.41,15.83-6.77,31.68-10.2,47.51c-1.62,7.5,0.1,11.51,6.72,15.26c1.41,0.8,2.85,1.55,4.21,2.43c5.06,3.27,4.94,8.86-0.57,11.39
		c-3.1,1.42-6.66,2.18-10.08,2.51c-17.64,1.69-35.31,3.14-52.97,4.68c-7.34,0.64-14.66,1.5-22.01,1.86
		c-3.28,0.16-6.8-0.13-9.88-1.17c-4.33-1.47-5.29-5.78-2.49-9.41c1.12-1.45,2.61-2.73,4.16-3.71c6.12-3.86,9.12-9.52,10.58-16.46
		c5.83-27.67,11.75-55.33,17.86-82.94c1.42-6.44-0.2-11.07-5.58-14.87c-7.19-5.08-7.41-9.79-0.15-14.77
		c4.97-3.41,10.59-6.12,16.26-8.21c11.04-4.06,22.53-6.61,34.36-6.57C300.82,196.14,310,201.33,314.73,213.08z"/>
	<path class="st0" d="M1034.54,104.41c2.47-12.96-0.88-23.4-11.94-30.51c-8.64-5.55-19.84-5.14-27.74,1.17
		c-11.56,9.24-13.04,21.07-7.44,34.77c-42.2,4.43-84.04,8.82-126.16,13.24c0.89-10.18-1.77-18.64-9.03-25.42
		c-5.83-5.44-12.81-7.7-20.62-6.99c-8.93,0.81-15.71,5.39-20.29,13.03c-4.54,7.57-4.99,15.72-2.08,25.34
		c-6.13-1.75-11.35-3.11-16.47-4.79c-1.29-0.42-2.9-1.7-3.24-2.9c-1.68-5.96-3.06-12-4.34-18.06c-0.18-0.83,0.61-2.27,1.38-2.83
		c2.69-1.95,2.65-4.34,2.12-7.27c-0.82-4.53-1.46-9.14-1.66-13.73c-0.09-2.19,0.5-4.79,1.7-6.59c4.81-7.27,9.98-14.3,15.17-21.65
		c-1.77-0.45-3.44-0.72-4.98-1.33c-0.81-0.33-2-1.35-1.91-1.9c0.13-0.87,1.02-2.03,1.86-2.33c11.95-4.29,23.82-8.81,36.54-10.5
		c21.51-2.86,43.02-5.69,64.47-8.97c19.43-2.97,37.34,2.47,55.05,9.1c9.44,3.53,18.57,7.88,27.88,11.77
		c1.33,0.56,2.86,0.77,4.32,0.9c16.53,1.47,33.07,2.78,49.59,4.38c7.01,0.68,11.38,4.34,15.14,10.89c4.84,8.41,5.1,16.99,5.51,25.92
		c0.17,3.75-1.43,6.45-4.45,8.49C1047.46,101.32,1041.59,103.85,1034.54,104.41z M980.99,55.06c0.1-0.32,0.21-0.65,0.31-0.97
		c-4.06-2.21-8.09-4.49-12.2-6.61c-10.96-5.64-22.19-10.63-34.35-13.08c-20.36-4.1-40.77-2.7-60.99,0.55
		c-14.43,2.32-28.61,6.23-42.87,9.55c-4.26,0.99-8.43,2.36-13.43,3.77c4.5,3.49,8.17,6.65,12.18,9.31c1.92,1.27,4.48,2.23,6.74,2.2
		c22.97-0.25,45.94-0.54,68.9-1.21c20.95-0.61,41.89-1.67,62.83-2.59C972.42,55.8,976.7,55.38,980.99,55.06z"/>
	<path class="st0" d="M784.19,132.57c-1.4,0.77-2.82,1.52-4.2,2.31c-1.59,0.92-3.09,2.01-4.75,2.78c-1.61,0.74-3.34,1.54-5.06,1.64
		c-5.03,0.31-10.8-1.22-14.96,0.76c-6.25,2.98-13.07-0.96-18.75,3.01c-0.17,0.12-0.5,0.1-0.74,0.04c-8.1-2.02-15.97,1.78-24.08,0.85
		c-7.96-0.92-11.36-7.96-8.94-14.75c0.6-1.69,1.08-3.41,1.61-5.12c0.07-0.23,0.04-0.5,0.13-0.73c1-2.53,9.96-7.58,12.65-7.15
		c2.06,0.33,7.61-3.23,8.25-5.28c1.48-4.77,9.59-7,14.12-5.28c5.75,2.18,7.85,6.56,9.94,11.47c3,7.07,8.88,9.78,16.13,10.3
		c0.95,0.07,1.94,0.26,2.81,0.62c2.29,0.96,3.39,4.1,7.14,2.59c2.19-0.88,5.29,0.51,7.98,0.88
		C783.7,131.86,783.95,132.21,784.19,132.57z"/>
	<path class="st0" d="M987.59,96.35c0.16-12.27,9.62-22.12,21.26-22.11c12.16,0,21.92,10.25,21.79,22.88
		c-0.12,12.06-9.62,21.95-21.05,21.91C997.29,118.99,987.43,108.82,987.59,96.35z M1009.07,79.24c-9.63,0.08-16.88,7.66-16.81,17.59
		c0.07,9.38,7.71,17.38,16.5,17.25c10-0.15,17.33-7.63,17.25-17.61C1025.94,87.03,1018.21,79.17,1009.07,79.24z"/>
	<path class="st0" d="M835.34,95.78c12.48,0.34,22.18,10.49,21.84,22.85c-0.34,12.38-10.16,21.94-22.14,21.57
		c-12.08-0.38-21.49-10.59-21.21-23.01C814.09,105.28,823.95,95.47,835.34,95.78z M852.38,117.75c-0.11-9.39-8.01-17.44-16.98-17.34
		c-9.3,0.1-17.12,8.27-17.01,17.77c0.11,9.29,8.38,17.46,17.53,17.33C845.04,135.37,852.5,127.33,852.38,117.75z"/>
	<path d="M783.62,135.2c1.34-0.8,2.62-1.75,4.05-2.3c0.44-0.17,1.3,0.75,1.97,1.17c-0.41,0.65-0.69,1.7-1.24,1.86
		c-1.37,0.39-2.85,0.36-4.29,0.5C783.95,136.02,783.78,135.61,783.62,135.2z"/>
</g>
</svg>

<svg width="1098" height="409" viewBox="0 0 1098 409" fill="none" xmlns="http://www.w3.org/2000/svg">
<path d="M1067.25 252.61C1061.03 273.1 1047.35 283.79 1024.34 286.35C1015.56 287.33 1006.91 287.29 998.46 284.37C982.25 278.76 973.48 264.93 977.02 248.05C980.49 231.5 985.42 215.26 989.71 198.88C990.72 195.02 991.91 191.2 992.63 187.28C993.71 181.35 988.72 176.81 982.8 178.08C976.51 179.42 972.16 183.58 969.93 189.1C967.02 196.31 964.97 203.93 963.15 211.51C960.2 223.87 957.69 236.34 955.12 248.79C954.53 251.64 953.32 255.19 956.72 256.87C960.09 258.54 962.51 256.04 964.63 253.54C965.55 252.45 966.82 251.66 967.93 250.73C968.82 252.14 970.19 253.45 970.52 254.98C972.7 264.87 968.62 272.8 962.05 279.68C953.37 288.78 942.15 292.72 930.08 294.55C920.61 295.99 911.2 295.89 902.01 292.56C886.92 287.09 878.7 274.36 881 258.34C882.27 249.5 884.66 240.81 886.91 232.14C889.92 220.57 893.27 209.09 896.5 197.58C897.48 194.08 897.33 190.81 894.38 188.33C891.4 185.83 887.96 185.84 884.51 187.27C876.39 190.61 872.75 197.61 870.97 205.44C866.12 226.83 861.75 248.33 857.1 269.76C855.95 275.05 857.16 279.37 861.49 282.73C861.98 283.11 862.42 283.56 862.9 283.97C868.6 288.86 867.72 294.65 860.38 296.88C854.84 298.56 848.93 299.21 843.13 299.78C824.37 301.61 805.58 303.22 786.8 304.84C783.7 305.11 780.55 305.19 777.44 305.06C773.93 304.92 770.71 303.92 769.46 300.11C768.23 296.35 770.3 293.58 773.12 291.88C781.2 287 784.59 279.63 786.14 270.69C787.86 260.75 790.26 250.93 792.38 241.06C796 224.25 799.53 207.41 803.3 190.63C804.65 184.63 802.94 180.28 798.03 176.69C790.35 171.07 790.44 166 798.5 160.67C808.76 153.89 820.33 150.22 832.37 148.52C839.69 147.49 847.35 146.78 854.6 147.79C866.37 149.42 873.7 158.17 875.35 170.17C875.43 170.75 875.64 171.32 875.93 172.43C878.79 168.6 881.29 165.12 883.92 161.75C896.03 146.2 912.53 139.7 931.67 139.47C949.56 139.25 963.46 150.65 967.52 168.07C967.63 168.54 967.76 169.01 968.09 170.34C969.1 168.73 969.8 167.7 970.41 166.62C975.3 157.98 980.75 149.67 988.92 143.82C1003.39 133.45 1019.37 128.23 1037.22 132.45C1051.4 135.81 1059.97 145.22 1063.41 159.29C1066.01 169.93 1063.94 180.34 1061.62 190.74C1057.94 207.28 1054.39 223.86 1050.82 240.43C1050.19 243.37 1049.25 246.95 1052.55 248.5C1056.05 250.15 1058.58 247.54 1060.61 244.75C1061.32 243.77 1062.28 242.96 1063.96 241.19C1065.24 244.18 1066.24 246.53 1067.25 248.87C1067.25 250.11 1067.25 251.36 1067.25 252.61Z" fill="white"/>
<path d="M29.38 185.12C31.77 179.17 37.03 178.17 42.48 177.68C65.11 175.68 87.73 173.73 110.37 171.8C112.98 171.58 115.63 171.44 118.22 171.67C126.28 172.39 130.6 180.29 125.59 186.53C118.98 194.76 119.15 202.85 121.9 212.37C127.05 230.19 131.22 248.28 135.81 266.26C136.09 267.34 136.41 268.4 136.9 270.13C141.98 258.92 146.74 248.26 151.63 237.66C159.61 220.36 167.32 202.92 175.83 185.88C181.39 174.74 189.75 166.07 202.6 163.16C213.92 160.6 224.71 160.73 233.61 169.68C242.07 178.18 244.14 194.99 238.2 206.8C232.2 218.73 219.93 225.63 207.05 223.13C201.78 222.11 196.97 218.76 191.95 216.47C191.99 216.07 192.04 215.68 192.08 215.28C191.34 216.65 190.55 218 189.87 219.41C170.36 259.93 150.87 300.46 131.36 340.99C130.55 342.67 129.64 344.31 128.74 345.94C123.58 355.27 117.22 363.18 105.85 365.08C105.1 365.08 104.35 365.08 103.6 365.08C91.74 363.85 86.38 355.85 83.22 345.54C83 344.83 82.73 344.13 82.54 343.41C70.83 300.81 58.99 258.25 47.52 215.59C45.44 207.85 41.6 201.85 35.56 196.77C33.05 194.66 31.4 191.52 29.36 188.85C29.38 187.62 29.38 186.37 29.38 185.12Z" fill="white"/>
<path d="M485.07 309.03C477.93 318.3 469.8 325.63 459.66 330.36C441.46 338.84 423.12 339.01 405.28 329.6C392.68 322.96 387.33 311.42 388.62 297.72C389.76 285.62 392.64 273.67 395.02 261.7C397.59 248.74 400.48 235.85 403.21 222.92C404.08 218.81 402.64 215.57 399.33 213.12C398.13 212.23 396.82 211.49 395.6 210.62C390.66 207.11 390.15 202.57 394.74 198.54C397.61 196.02 400.92 193.81 404.38 192.21C420.01 184.98 436.45 181.35 453.75 182.11C469.63 182.8 479.12 194.33 476.68 210.54C475.34 219.4 473.26 228.16 471.43 236.95C468.62 250.5 465.74 264.03 462.89 277.57C462.86 277.69 462.86 277.82 462.84 277.94C461.74 284.11 462.89 287.67 466.53 289.38C470.72 291.35 477.24 290.23 480.04 285.98C482.86 281.7 485.39 276.86 486.54 271.91C490.89 253.09 494.63 234.13 498.61 215.23C499.49 211.07 498.56 207.56 495.08 204.91C494.09 204.16 493.08 203.41 492.06 202.7C486.2 198.63 485.48 193.74 491.24 189.47C496.35 185.67 502.27 182.63 508.25 180.38C521.67 175.34 535.62 172.7 550.06 173.77C563.81 174.78 572.73 183.69 572.53 196.43C572.47 200.39 571.91 204.4 571.1 208.29C565.77 234.04 560.24 259.75 555.01 285.53C554.6 287.58 555.33 291.08 556.76 292.01C559.46 293.76 562.17 291.81 564.08 289.37C564.47 288.88 564.77 288.32 565.16 287.84C567.35 285.11 569.18 285.37 570.48 288.71C572.31 293.41 571.52 298.09 569.79 302.6C566.47 311.26 560.16 317.47 552.37 322.05C537.93 330.54 522.46 332.88 506.25 328.32C497.01 325.72 490.22 319.94 486.19 311.11C485.94 310.56 485.62 310.05 485.07 309.03Z" fill="white"/>
<path d="M682.43 292.78C675.35 298.66 669.03 305.25 661.51 309.89C643.19 321.19 623.69 322.57 604 313.37C591.65 307.6 585.02 297.17 585.32 283.78C585.55 273.55 587.86 263.31 589.84 253.18C592.9 237.53 596.46 221.97 599.8 206.37C600.84 201.49 599.51 198.26 595.34 195.43C594.82 195.08 594.3 194.73 593.78 194.39C586.71 189.69 586.44 184.97 593.21 179.7C600.23 174.24 608.55 171.45 616.95 169.05C628.17 165.84 639.61 163.97 651.32 164.81C665.32 165.81 673.8 174.93 673.51 188.89C673.41 193.46 672.59 198.06 671.67 202.56C667.69 221.97 663.54 241.35 659.49 260.75C658.27 266.6 659.62 270.44 663.32 272.16C667.59 274.15 674.01 272.5 677.21 268.52C682.01 262.54 683.29 255.26 684.78 248.04C688.11 231.93 691.47 215.82 694.87 199.72C696.38 192.54 695.51 190.13 689.63 186.01C682.36 180.91 682.26 175.7 689.65 170.56C699.69 163.58 711.25 160.42 723.06 158.17C732.63 156.35 742.3 154.83 752.02 157.24C763.8 160.16 771.11 170.11 769.1 182.12C766.38 198.34 762.8 214.41 759.49 230.52C757 242.61 754.29 254.64 751.83 266.73C751.25 269.57 750.13 273.27 753.49 274.84C756.94 276.45 759.52 273.99 761.55 271.13C762.28 270.11 763.53 269.46 764.55 268.65C765.52 269.86 767.01 270.94 767.38 272.31C769.35 279.46 767.26 285.91 763.1 291.7C755.05 302.9 743.9 309.54 730.46 311.69C723.41 312.82 715.97 313.11 708.9 312.23C696.49 310.7 687.12 304.12 682.43 292.78Z" fill="white"/>
<path d="M314.73 213.08C318.37 208.83 321.47 204.6 325.17 200.98C337.46 188.92 358.99 186.67 372.94 195.73C385.02 203.57 390.28 218.83 386.75 234.41C382.76 251.96 366.92 260.76 350.23 257.92C343.67 256.8 339.42 252.47 335.55 247.67C333.29 244.86 331.48 241.69 329.4 238.73C327.31 235.74 325.2 232.37 320.87 233.23C316.57 234.09 315.2 237.83 314.34 241.55C312.27 250.53 310.35 259.55 308.4 268.56C304.99 284.39 301.63 300.24 298.2 316.07C296.58 323.57 298.3 327.58 304.92 331.33C306.33 332.13 307.77 332.88 309.13 333.76C314.19 337.03 314.07 342.62 308.56 345.15C305.46 346.57 301.9 347.33 298.48 347.66C280.84 349.35 263.17 350.8 245.51 352.34C238.17 352.98 230.85 353.84 223.5 354.2C220.22 354.36 216.7 354.07 213.62 353.03C209.29 351.56 208.33 347.25 211.13 343.62C212.25 342.17 213.74 340.89 215.29 339.91C221.41 336.05 224.41 330.39 225.87 323.45C231.7 295.78 237.62 268.12 243.73 240.51C245.15 234.07 243.53 229.44 238.15 225.64C230.96 220.56 230.74 215.85 238 210.87C242.97 207.46 248.59 204.75 254.26 202.66C265.3 198.6 276.79 196.05 288.62 196.09C300.82 196.14 310 201.33 314.73 213.08Z" fill="white"/>
<path d="M1034.54 104.41C1037.01 91.45 1033.66 81.01 1022.6 73.9C1013.96 68.35 1002.76 68.76 994.86 75.07C983.3 84.31 981.82 96.14 987.42 109.84C945.22 114.27 903.38 118.66 861.26 123.08C862.15 112.9 859.49 104.44 852.23 97.66C846.4 92.22 839.42 89.96 831.61 90.67C822.68 91.48 815.9 96.06 811.32 103.7C806.78 111.27 806.33 119.42 809.24 129.04C803.11 127.29 797.89 125.93 792.77 124.25C791.48 123.83 789.87 122.55 789.53 121.35C787.85 115.39 786.47 109.35 785.19 103.29C785.01 102.46 785.8 101.02 786.57 100.46C789.26 98.51 789.22 96.12 788.69 93.19C787.87 88.66 787.23 84.05 787.03 79.46C786.94 77.27 787.53 74.67 788.73 72.87C793.54 65.6 798.71 58.57 803.9 51.22C802.13 50.77 800.46 50.5 798.92 49.89C798.11 49.56 796.92 48.54 797.01 47.99C797.14 47.12 798.03 45.96 798.87 45.66C810.82 41.37 822.69 36.85 835.41 35.16C856.92 32.3 878.43 29.47 899.88 26.19C919.31 23.22 937.22 28.66 954.93 35.29C964.37 38.82 973.5 43.17 982.81 47.06C984.14 47.62 985.67 47.83 987.13 47.96C1003.66 49.43 1020.2 50.74 1036.72 52.34C1043.73 53.02 1048.1 56.68 1051.86 63.23C1056.7 71.64 1056.96 80.22 1057.37 89.15C1057.54 92.9 1055.94 95.6 1052.92 97.64C1047.46 101.32 1041.59 103.85 1034.54 104.41ZM980.99 55.06C981.09 54.74 981.2 54.41 981.3 54.09C977.24 51.88 973.21 49.6 969.1 47.48C958.14 41.84 946.91 36.85 934.75 34.4C914.39 30.3 893.98 31.7 873.76 34.95C859.33 37.27 845.15 41.18 830.89 44.5C826.63 45.49 822.46 46.86 817.46 48.27C821.96 51.76 825.63 54.92 829.64 57.58C831.56 58.85 834.12 59.81 836.38 59.78C859.35 59.53 882.32 59.24 905.28 58.57C926.23 57.96 947.17 56.9 968.11 55.98C972.42 55.8 976.7 55.38 980.99 55.06Z" fill="white"/>
<path d="M784.19 132.57C782.79 133.34 781.37 134.09 779.99 134.88C778.4 135.8 776.9 136.89 775.24 137.66C773.63 138.4 771.9 139.2 770.18 139.3C765.15 139.61 759.38 138.08 755.22 140.06C748.97 143.04 742.15 139.1 736.47 143.07C736.3 143.19 735.97 143.17 735.73 143.11C727.63 141.09 719.76 144.89 711.65 143.96C703.69 143.04 700.29 136 702.71 129.21C703.31 127.52 703.79 125.8 704.32 124.09C704.39 123.86 704.36 123.59 704.45 123.36C705.45 120.83 714.41 115.78 717.1 116.21C719.16 116.54 724.71 112.98 725.35 110.93C726.83 106.16 734.94 103.93 739.47 105.65C745.22 107.83 747.32 112.21 749.41 117.12C752.41 124.19 758.29 126.9 765.54 127.42C766.49 127.49 767.48 127.68 768.35 128.04C770.64 129 771.74 132.14 775.49 130.63C777.68 129.75 780.78 131.14 783.47 131.51C783.7 131.86 783.95 132.21 784.19 132.57Z" fill="white"/>
<path d="M987.59 96.35C987.75 84.08 997.21 74.23 1008.85 74.24C1021.01 74.24 1030.77 84.49 1030.64 97.12C1030.52 109.18 1021.02 119.07 1009.59 119.03C997.29 118.99 987.43 108.82 987.59 96.35ZM1009.07 79.24C999.44 79.32 992.19 86.9 992.26 96.83C992.33 106.21 999.97 114.21 1008.76 114.08C1018.76 113.93 1026.09 106.45 1026.01 96.47C1025.94 87.03 1018.21 79.17 1009.07 79.24Z" fill="white"/>
<path d="M835.34 95.78C847.82 96.12 857.52 106.27 857.18 118.63C856.84 131.01 847.02 140.57 835.04 140.2C822.96 139.82 813.55 129.61 813.83 117.19C814.09 105.28 823.95 95.47 835.34 95.78ZM852.38 117.75C852.27 108.36 844.37 100.31 835.4 100.41C826.1 100.51 818.28 108.68 818.39 118.18C818.5 127.47 826.77 135.64 835.92 135.51C845.04 135.37 852.5 127.33 852.38 117.75Z" fill="white"/>
<path d="M783.62 135.2C784.96 134.4 786.24 133.45 787.67 132.9C788.11 132.73 788.97 133.65 789.64 134.07C789.23 134.72 788.95 135.77 788.4 135.93C787.03 136.32 785.55 136.29 784.11 136.43C783.95 136.02 783.78 135.61 783.62 135.2Z" fill="white"/>
</svg>
